assets/Airplane arrival/Flat/airplane_arrival_flat.svg

<svg width="32" height="32" viewBox="0 0 32 32" fill="none" xmlns="http://www.w3.org/2000/svg">
<g clip-path="url(#clip0_18_12671)">
<path d="M14.7557 8.4416L16.7857 9.70466L18.983 8.9935C18.9621 8.49926 18.5885 8.07806 18.0883 8.01662L14.8684 7.59229L14.7557 8.4416ZM13.5658 17.2564L16.7857 17.6807C17.3461 17.7496 17.7475 18.2699 17.6723 18.8386C17.597 19.4073 17.0831 19.8004 16.5144 19.7252L13.2944 19.3008L13.5658 17.2564Z" fill="#9B9B9B"/>
<path d="M6.75363 4.31684L8.17051 7.58605L4.99987 7.99997L2.03076 6.78046L2.61305 2.30881C2.65662 1.9557 2.97862 1.70897 3.33172 1.75254C4.84552 1.9511 6.13813 2.92655 6.75363 4.31684ZM13.368 3.52663L17.884 8.85018L14.4999 9.49997L11.7461 8.04885L10.4236 5.5118C9.75415 4.22685 10.8078 2.72753 12.237 2.91469C12.6747 2.96965 13.0812 3.18732 13.368 3.52663Z" fill="#0084CE"/>
<path d="M2.0308 6.78049L1.89415 7.7953C1.63866 9.73193 2.31887 11.6647 3.71577 13.0265C4.67011 13.9564 5.89651 14.548 7.21793 14.7194L26.2653 17.2035C28.1702 17.4481 29.9256 16.0592 30.1836 14.0845C30.4416 12.1097 29.0996 10.3104 27.1946 10.0658L2.0308 6.78049Z" fill="#CDC4D6"/>
<path d="M25.5378 12.7023C25.4809 13.1252 25.782 13.5154 26.2048 13.5723L30.1923 14.0908L30.1988 14.0824C30.2696 13.5369 30.2217 13.0072 30.0655 12.5146L26.4078 12.0353C25.9766 11.9719 25.5863 12.2731 25.5378 12.7023Z" fill="#00A6ED"/>
<path d="M15.4487 12.6871L20.4807 13.3382C21.3561 13.4482 21.6353 14.5812 20.9107 15.093L10.9548 22.0285C10.5883 22.2812 10.1427 22.3934 9.70499 22.3384C8.27576 22.1513 7.63805 20.4242 8.61347 19.3581L14.3335 13.0999C14.6243 12.7894 15.0407 12.6282 15.4487 12.6871Z" fill="#0084CE"/>
<path d="M30.0029 25C30.0029 24.4477 29.5552 24 29.0029 24H3.00293C2.45064 24 2.00293 24.4477 2.00293 25V29C2.00293 29.5523 2.45064 30 3.00293 30H29.0029C29.5552 30 30.0029 29.5523 30.0029 29V25Z" fill="#636363"/>
<path d="M4.5 26.5C4.22386 26.5 4 26.7239 4 27C4 27.2761 4.22386 27.5 4.5 27.5H8C8.27614 27.5 8.5 27.2761 8.5 27C8.5 26.7239 8.27614 26.5 8 26.5H4.5Z" fill="#9B9B9B"/>
<path d="M11 26.5C10.7239 26.5 10.5 26.7239 10.5 27C10.5 27.2761 10.7239 27.5 11 27.5H14.5C14.7761 27.5 15 27.2761 15 27C15 26.7239 14.7761 26.5 14.5 26.5H11Z" fill="#9B9B9B"/>
<path d="M17 27C17 26.7239 17.2239 26.5 17.5 26.5H21C21.2761 26.5 21.5 26.7239 21.5 27C21.5 27.2761 21.2761 27.5 21 27.5H17.5C17.2239 27.5 17 27.2761 17 27Z" fill="#9B9B9B"/>
<path d="M24 26.5C23.7239 26.5 23.5 26.7239 23.5 27C23.5 27.2761 23.7239 27.5 24 27.5H27.5C27.7761 27.5 28 27.2761 28 27C28 26.7239 27.7761 26.5 27.5 26.5H24Z" fill="#9B9B9B"/>
</g>
<defs>
<clipPath id="clip0_18_12671">
<rect width="32" height="32" fill="white"/>
</clipPath>
</defs>
</svg>

<svg xmlns="http://www.w3.org/2000/svg" width="32" height="32" fill="none"><g clip-path="url(#a)"><path fill="#9B9B9B" d="m14.756 8.442 2.03 1.263 2.197-.712a1.027 1.027 0 0 0-.895-.976l-3.22-.425-.112.85Zm-1.19 8.814 3.22.425c.56.069.961.589.886 1.158-.075.568-.589.961-1.158.886l-3.22-.424.272-2.045Z"/><path fill="#0084CE" d="M6.754 4.317 8.17 7.586 5 8 2.03 6.78l.583-4.471a.642.642 0 0 1 .719-.556 4.364 4.364 0 0 1 3.422 2.564Zm6.614-.79 4.516 5.323-3.384.65-2.754-1.451-1.322-2.537c-.67-1.285.384-2.784 1.813-2.597.438.055.844.272 1.131.612Z"/><path fill="#CDC4D6" d="m2.03 6.78-.136 1.015a6.174 6.174 0 0 0 5.324 6.924l19.047 2.484c1.905.245 3.66-1.144 3.919-3.118.258-1.975-1.084-3.775-2.99-4.02L2.032 6.78Z"/><path fill="#00A6ED" d="M25.538 12.702a.777.777 0 0 0 .667.87l3.987.519.007-.009a3.62 3.62 0 0 0-.134-1.567l-3.657-.48a.76.76 0 0 0-.87.667Z"/><path fill="#0084CE" d="m15.449 12.687 5.032.651c.875.11 1.154 1.243.43 1.755l-9.956 6.936a1.81 1.81 0 0 1-1.25.31c-1.43-.188-2.067-1.915-1.092-2.98l5.72-6.26a1.29 1.29 0 0 1 1.116-.412Z"/><path fill="#636363" d="M30.003 25a1 1 0 0 0-1-1h-26a1 1 0 0 0-1 1v4a1 1 0 0 0 1 1h26a1 1 0 0 0 1-1v-4Z"/><path fill="#9B9B9B" d="M4.5 26.5a.5.5 0 0 0 0 1H8a.5.5 0 0 0 0-1H4.5ZM11 26.5a.5.5 0 0 0 0 1h3.5a.5.5 0 0 0 0-1H11ZM17 27a.5.5 0 0 1 .5-.5H21a.5.5 0 0 1 0 1h-3.5a.5.5 0 0 1-.5-.5ZM24 26.5a.5.5 0 0 0 0 1h3.5a.5.5 0 0 0 0-1H24Z"/></g><defs><clipPath id="a"><path fill="#fff" d="M0 0h32v32H0z"/></clipPath></defs></svg>
